{
  "compressionlevel": -1,
  "height": 11,
  "infinite": false,
  "layers": [
    {
      "data": [
        10, 10, 10, 10, 10, 10, 10, 10, 10, 10, 10,
        10, 3, 12, 3, 3, 3, 3, 12, 3, 3, 10,
        10, 3, 7, 2, 2, 2, 4, 3, 5, 3, 10,
        10, 3, 2, 2, 2, 2, 2, 3, 2, 3, 10,
        10, 3, 3, 1, 3, 3, 3, 3, 1, 3, 10,
        10, 3, 2, 2, 2, 2, 2, 2, 2, 3, 10,
        10, 12, 2, 2, 8, 6, 6, 11, 2, 12, 10,
        10, 3, 2, 2, 2, 2, 2, 2, 2, 3, 10,
        10, 3, 3, 3, 3, 1, 3, 3, 3, 3, 10,
        10, 10, 10, 10, 9, 10, 10, 10, 10, 10, 10,
        10, 10, 10, 10, 10, 10, 10, 10, 10, 10, 10
      ],
      "height": 11,
      "id": 1,
      "name": "ground",
      "opacity": 1,
      "type": "tilelayer",
      "visible": true,
      "width": 11,
      "x": 0,
      "y": 0
    },
    {
      "draworder": "topdown",
      "id": 2,
      "name": "objects",
      "objects": [
        {
          "height": 64,
          "id": 1,
          "name": "bedroom",
          "properties": [
            {
              "name": "tags",
              "type": "string",
              "value": "bedroom"
            }
          ],
          "rotation": 0,
          "type": "room",
          "visible": true,
          "width": 160,
          "x": 64,
          "y": 64
        },
        {
          "height": 64,
          "id": 2,
          "name": "bathroom",
          "properties": [
            {
              "name": "tags",
              "type": "string",
              "value": "bathroom"
            }
          ],
          "rotation": 0,
          "type": "room",
          "visible": true,
          "width": 32,
          "x": 256,
          "y": 64
        },
        {
          "height": 96,
          "id": 3,
          "name": "kitchen",
          "properties": [
            {
              "name": "tags",
              "type": "string",
              "value": "kitchen"
            }
          ],
          "rotation": 0,
          "type": "room",
          "visible": true,
          "width": 224,
          "x": 64,
          "y": 160
        }
      ],
      "opacity": 1,
      "type": "objectgroup",
      "visible": true,
      "x": 0,
      "y": 0
    }
  ],
  "nextlayerid": 3,
  "nextobjectid": 4,
  "orientation": "isometric",
  "renderorder": "right-down",
  "tiledversion": "1.10.2",
  "tileheight": 32,
  "tilesets": [
    {
      "firstgid": 1,
      "source": "house_b.tsj"
    }
  ],
  "tilewidth": 64,
  "type": "map",
  "version": "1.10",
  "width": 11
}
