{
  "compressionlevel": -1,
  "height": 15,
  "infinite": false,
  "layers": [
    {
      "data": [
        6, 6, 6, 6, 6, 6, 6, 6, 6, 6, 6, 6, 6, 6, 6,
        6, 2, 2, 2, 2, 2, 2, 2, 2, 2, 2, 2, 2, 6, 6,
        6, 2, 5, 2, 2, 2, 2, 2, 2, 2, 2, 2, 5, 6, 6,
        6, 2, 2, 2, 2, 2, 2, 2, 2, 2, 2, 2, 2, 6, 6,
        6, 2, 2, 2, 2, 2, 2, 2, 2, 2, 2, 2, 2, 6, 6,
        6, 2, 2, 2, 2, 2, 2, 4, 2, 2, 2, 2, 2, 6, 6,
        6, 2, 2, 2, 2, 2, 2, 2, 2, 2, 2, 2, 2, 6, 6,
        6, 2, 2, 2, 2, 2, 2, 2, 2, 2, 2, 2, 2, 6, 6,
        6, 2, 2, 2, 2, 2, 2, 2, 2, 2, 2, 2, 2, 6, 6,
        6, 2, 2, 2, 2, 2, 2, 2, 2, 2, 2, 2, 2, 6, 6,
        6, 2, 5, 2, 2, 2, 2, 2, 2, 2, 2, 2, 5, 6, 6,
        6, 6, 6, 6, 6, 6, 6, 6, 6, 6, 6, 6, 6, 6, 6,
        6, 6, 6, 6, 6, 6, 6, 6, 6, 6, 6, 6, 6, 6, 6,
        6, 6, 6, 6, 6, 6, 6, 6, 6, 6, 6, 6, 6, 6, 6,
        6, 6, 6, 6, 6, 6, 6, 6, 6, 6, 6, 6, 6, 6, 6
      ],
      "height": 15,
      "id": 1,
      "name": "ground",
      "opacity": 1,
      "type": "tilelayer",
      "visible": true,
      "width": 15,
      "x": 0,
      "y": 0
    },
    {
      "data": [
        0, 0, 0, 0, 0, 0, 0, 0, 0, 0, 0, 0, 0, 0, 0,
        0, 3, 3, 3, 3, 3, 3, 3, 3, 3, 3, 3, 3, 0, 0,
        0, 0, 0, 0, 0, 0, 0, 0, 0, 0, 0, 0, 0, 0, 0,
        0, 0, 0, 0, 0, 0, 0, 0, 0, 0, 0, 0, 0, 0, 0,
        0, 0, 0, 0, 0, 0, 0, 0, 0, 0, 0, 0, 0, 0, 0,
        0, 0, 0, 0, 0, 0, 0, 0, 0, 0, 0, 0, 0, 0, 0,
        0, 0, 0, 0, 0, 0, 0, 0, 0, 0, 0, 0, 0, 0, 0,
        0, 0, 0, 0, 0, 0, 0, 0, 0, 0, 0, 0, 0, 0, 0,
        0, 0, 0, 0, 0, 0, 0, 0, 0, 0, 0, 0, 0, 0, 0,
        0, 0, 0, 0, 0, 0, 0, 0, 0, 0, 0, 0, 0, 0, 0,
        0, 0, 0, 0, 0, 0, 0, 0, 0, 0, 0, 0, 0, 0, 0,
        0, 3, 3, 3, 3, 3, 1, 1, 3, 3, 3, 3, 3, 0, 0,
        0, 0, 0, 0, 0, 0, 0, 0, 0, 0, 0, 0, 0, 0, 0,
        0, 0, 0, 0, 0, 0, 0, 0, 0, 0, 0, 0, 0, 0, 0,
        0, 0, 0, 0, 0, 0, 0, 0, 0, 0, 0, 0, 0, 0, 0
      ],
      "height": 15,
      "id": 2,
      "name": "edges n",
      "opacity": 1,
      "properties": [
        {
          "name": "edge",
          "type": "string",
          "value": "n"
        }
      ],
      "type": "tilelayer",
      "visible": true,
      "width": 15,
      "x": 0,
      "y": 0
    },
    {
      "data": [
        0, 0, 0, 0, 0, 0, 0, 0, 0, 0, 0, 0, 0, 0, 0,
        0, 3, 0, 0, 0, 0, 0, 0, 0, 0, 0, 0, 0, 3, 0,
        0, 3, 0, 0, 0, 0, 0, 0, 0, 0, 0, 0, 0, 3, 0,
        0, 3, 0, 0, 0, 0, 0, 0, 0, 0, 0, 0, 0, 3, 0,
        0, 3, 0, 0, 0, 0, 0, 0, 0, 0, 0, 0, 0, 3, 0,
        0, 3, 0, 0, 0, 0, 0, 0, 0, 0, 0, 0, 0, 3, 0,
        0, 3, 0, 0, 0, 0, 0, 0, 0, 0, 0, 0, 0, 3, 0,
        0, 3, 0, 0, 0, 0, 0, 0, 0, 0, 0, 0, 0, 3, 0,
        0, 3, 0, 0, 0, 0, 0, 0, 0, 0, 0, 0, 0, 3, 0,
        0, 3, 0, 0, 0, 0, 0, 0, 0, 0, 0, 0, 0, 3, 0,
        0, 3, 0, 0, 0, 0, 0, 0, 0, 0, 0, 0, 0, 3, 0,
        0, 0, 0, 0, 0, 0, 0, 0, 0, 0, 0, 0, 0, 0, 0,
        0, 0, 0, 0, 0, 0, 0, 0, 0, 0, 0, 0, 0, 0, 0,
        0, 0, 0, 0, 0, 0, 0, 0, 0, 0, 0, 0, 0, 0, 0,
        0, 0, 0, 0, 0, 0, 0, 0, 0, 0, 0, 0, 0, 0, 0
      ],
      "height": 15,
      "id": 3,
      "name": "edges w",
      "opacity": 1,
      "properties": [
        {
          "name": "edge",
          "type": "string",
          "value": "w"
        }
      ],
      "type": "tilelayer",
      "visible": true,
      "width": 15,
      "x": 0,
      "y": 0
    },
    {
      "draworder": "topdown",
      "id": 4,
      "name": "objects",
      "objects": [
        {
          "height": 320,
          "id": 1,
          "name": "garage",
          "properties": [
            {
              "name": "tags",
              "type": "string",
              "value": "garage"
            }
          ],
          "rotation": 0,
          "type": "room",
          "visible": true,
          "width": 384,
          "x": 32,
          "y": 32
        }
      ],
      "opacity": 1,
      "type": "objectgroup",
      "visible": true,
      "x": 0,
      "y": 0
    }
  ],
  "nextlayerid": 5,
  "nextobjectid": 2,
  "orientation": "isometric",
  "renderorder": "right-down",
  "tiledversion": "1.10.2",
  "tileheight": 32,
  "tilesets": [
    {
      "firstgid": 1,
      "source": "garage.tsj"
    }
  ],
  "tilewidth": 64,
  "type": "map",
  "version": "1.10",
  "width": 15
}
