{
  "compressionlevel": -1,
  "height": 15,
  "infinite": false,
  "layers": [
    {
      "data": [
        9, 9, 9, 9, 9, 9, 9, 9, 9, 9, 9, 9, 9, 9, 9,
        9, 3, 3, 3, 11, 3, 3, 3, 3, 3, 11, 3, 3, 3, 9,
        9, 3, 8, 6, 10, 2, 2, 3, 7, 2, 2, 2, 4, 3, 9,
        9, 11, 2, 2, 2, 2, 2, 3, 2, 2, 2, 2, 2, 11, 9,
        9, 3, 2, 2, 2, 2, 2, 3, 2, 2, 2, 2, 2, 3, 9,
        9, 3, 2, 2, 2, 2, 2, 3, 2, 2, 2, 2, 2, 3, 9,
        9, 3, 3, 3, 1, 3, 3, 3, 1, 3, 3, 3, 3, 3, 9,
        9, 3, 2, 2, 2, 2, 2, 2, 2, 3, 2, 5, 2, 3, 9,
        9, 3, 2, 2, 2, 2, 2, 2, 2, 1, 2, 2, 2, 3, 9,
        9, 3, 2, 2, 2, 2, 2, 2, 2, 3, 2, 2, 2, 3, 9,
        9, 3, 2, 2, 2, 2, 2, 2, 2, 3, 2, 2, 2, 3, 9,
        9, 3, 3, 3, 3, 1, 3, 3, 3, 3, 3, 3, 3, 3, 9,
        9, 9, 9, 9, 9, 9, 9, 9, 9, 9, 9, 9, 9, 9, 9,
        9, 9, 9, 9, 9, 9, 9, 9, 9, 9, 9, 9, 9, 9, 9,
        9, 9, 9, 9, 9, 9, 9, 9, 9, 9, 9, 9, 9, 9, 9
      ],
      "height": 15,
      "id": 1,
      "name": "ground",
      "opacity": 1,
      "type": "tilelayer",
      "visible": true,
      "width": 15,
      "x": 0,
      "y": 0
    },
    {
      "draworder": "topdown",
      "id": 2,
      "name": "objects",
      "objects": [
        {
          "height": 128,
          "id": 1,
          "name": "kitchen",
          "properties": [
            {
              "name": "tags",
              "type": "string",
              "value": "kitchen"
            }
          ],
          "rotation": 0,
          "type": "room",
          "visible": true,
          "width": 160,
          "x": 64,
          "y": 64
        },
        {
          "height": 128,
          "id": 2,
          "name": "bedroom",
          "properties": [
            {
              "name": "tags",
              "type": "string",
              "value": "bedroom"
            }
          ],
          "rotation": 0,
          "type": "room",
          "visible": true,
          "width": 160,
          "x": 256,
          "y": 64
        },
        {
          "height": 128,
          "id": 3,
          "name": "bathroom",
          "properties": [
            {
              "name": "tags",
              "type": "string",
              "value": "bathroom"
            }
          ],
          "rotation": 0,
          "type": "room",
          "visible": true,
          "width": 96,
          "x": 320,
          "y": 224
        }
      ],
      "opacity": 1,
      "type": "objectgroup",
      "visible": true,
      "x": 0,
      "y": 0
    }
  ],
  "nextlayerid": 3,
  "nextobjectid": 4,
  "orientation": "isometric",
  "renderorder": "right-down",
  "tiledversion": "1.10.2",
  "tileheight": 32,
  "tilesets": [
    {
      "firstgid": 1,
      "source": "house_a.tsj"
    }
  ],
  "tilewidth": 64,
  "type": "map",
  "version": "1.10",
  "width": 15
}
