{
  "compressionlevel": -1,
  "height": 59,
  "infinite": false,
  "layers": [
    {
      "data": [
        1, 1, 1, 1, 1,
        1, 1, 1, 1, 1,
        1, 1, 1, 1, 1,
        1, 1, 1, 1, 1,
        1, 1, 1, 1, 1,
        1, 1, 1, 1, 1,
        1, 1, 1, 1, 1,
        1, 1, 1, 1, 1,
        1, 1, 1, 1, 1,
        1, 1, 1, 1, 1,
        1, 1, 1, 1, 1,
        1, 1, 1, 1, 1,
        1, 1, 1, 1, 1,
        1, 1, 1, 1, 1,
        1, 1, 1, 1, 1,
        1, 1, 1, 1, 1,
        1, 1, 1, 1, 1,
        1, 1, 1, 1, 1,
        1, 1, 1, 1, 1,
        1, 1, 1, 1, 1,
        1, 1, 1, 1, 1,
        1, 1, 1, 1, 1,
        1, 1, 1, 1, 1,
        1, 1, 1, 1, 1,
        1, 1, 1, 1, 1,
        1, 1, 1, 1, 1,
        1, 1, 1, 1, 1,
        1, 1, 1, 1, 1,
        1, 1, 1, 1, 1,
        1, 1, 1, 1, 1,
        1, 1, 1, 1, 1,
        1, 1, 1, 1, 1,
        1, 1, 1, 1, 1,
        1, 1, 1, 1, 1,
        1, 1, 1, 1, 1,
        1, 1, 1, 1, 1,
        1, 1, 1, 1, 1,
        1, 1, 1, 1, 1,
        1, 1, 1, 1, 1,
        1, 1, 1, 1, 1,
        1, 1, 1, 1, 1,
        1, 1, 1, 1, 1,
        1, 1, 1, 1, 1,
        1, 1, 1, 1, 1,
        1, 1, 1, 1, 1,
        1, 1, 1, 1, 1,
        1, 1, 1, 1, 1,
        1, 1, 1, 1, 1,
        1, 1, 1, 1, 1,
        1, 1, 1, 1, 1,
        1, 1, 1, 1, 1,
        1, 1, 1, 1, 1,
        1, 1, 1, 1, 1,
        1, 1, 1, 1, 1,
        1, 1, 1, 1, 1,
        1, 1, 1, 1, 1,
        1, 1, 1, 1, 1,
        1, 1, 1, 1, 1,
        1, 1, 1, 1, 1
      ],
      "height": 59,
      "id": 1,
      "name": "ground",
      "opacity": 1,
      "type": "tilelayer",
      "visible": true,
      "width": 5,
      "x": 0,
      "y": 0
    },
    {
      "draworder": "topdown",
      "id": 2,
      "name": "objects",
      "objects": [],
      "opacity": 1,
      "type": "objectgroup",
      "visible": true,
      "x": 0,
      "y": 0
    }
  ],
  "nextlayerid": 3,
  "nextobjectid": 1,
  "orientation": "isometric",
  "renderorder": "right-down",
  "tiledversion": "1.10.2",
  "tileheight": 32,
  "tilesets": [
    {
      "firstgid": 1,
      "source": "road_v.tsj"
    }
  ],
  "tilewidth": 64,
  "type": "map",
  "version": "1.10",
  "width": 5
}
